X:1
T:Title
%%score { ( 1 3 ) | ( 2 4 5 ) }
L:1/8
M:4/4
K:Ab
V:1 treble nm="Grand Piano"
V:3 treble 
V:2 bass 
V:4 bass 
V:5 bass 
V:1
 z4 z2[Q:1/4=100] E>E | [CA]2 [Cc]2 [CG]2 [Cc]2 | z2 [CF]4[K:bass] z2 | [CG]2 [CA]2 [CEB]2 [CEA]2 | %4
[M:3/4] G6 |[M:1/4] E>E |[M:4/4] [DB]2 [Dd]2 [DA]2 [Dd]2 | z2 [DG]4[K:bass] z2 | %8
 [DG]2 [DA]2 [DGB]2 [DGe]2 |[M:3/4] c6 |[M:1/4] E>E |[M:4/4] [CA]2 [Cc]2 [CG]2 [Cc]2 | %12
 z2 [CF]4[K:bass] z2 | [CG]2 [CA]2 [EB]2 [A,EA]2 |[M:3/4] [EG]6 |[M:1/4] B>B | %16
[M:4/4] [=Dc]2 [DB]2 [c=dc']2 [cdb]2 | c2 B2 c'2 b2 | [=Dc]2 [DB]2 [DA]2 [A,DF]2 | %19
 z2 (3[Fe]ee [Fe]2 [Fe]2 | [CE]4 [CEF]4 | [DEA]4 [DEG]4 | [FGd]2 [FGd]>[FGd] [EGc]2 [DG_c]2 | %23
 c6 z2 | c4 G4 | B4 A4 | [=DFB]2 [B,DF]>[B,DF] [B,DG]2 [B,DA]2 | [DGc]2 [DGB]2 [DG]2 [DF]2 | %28
 [CE]4[K:bass] [CEF]4 | [DEA]4 [DEG]4 | [FGd]2 [FGd]>[FGd] [EGc]2 [DG_c]2 | c6 z2 | z4 A4 | %33
 [FAe]2 [FAd]2 [DF]2 [D=EA]2 | z4 [DFGB]4[K:bass] |[M:3/4] [CEA]6 |] %36
V:2
 z8 | [A,,E,]2 [E,,E,]2 [A,,E,]2 [E,,E,]2 | [A,,E,]2 [E,,E,]2 A,,2 z z/ F/ | %3
 [A,,E,]2 [E,,E,]2 [A,,E,]2 [E,,E,]2 |[M:3/4] [B,,E,G,]2 (3z G,G, [B,,E,G,]2 |[M:1/4] z2 | %6
[M:4/4] [G,,E,]2 [E,,E,]2 [G,,E,]2 [E,,E,]2 | [B,,E,]2 [E,,E,]2 B,,2 z z/ F/ | %8
 [B,,E,]2 [E,,E,]2 [B,,E,]2 [E,,E,]2 |[M:3/4] [A,,A,]2 (3[CE][CE][CE] [E,CE]2 |[M:1/4] C,2 | %11
[M:4/4] [A,,E,]2 [E,,E,]2 [A,,E,]2 [E,,E,]2 | [A,,E,]2 [E,,E,]2 A,,2 z z/ F/ | %13
 [A,,E,]2 [E,,E,]2 [C,A,]2 _C,2 |[M:3/4] B,,2 E,>G, B,2 |[M:1/4] [E,G,E]>[E,G,E] | %16
[M:4/4] [B,,A,]2 [B,,A,]2 B,2 B,2 | [E,G,E]2 [E,G,E]2[K:treble] [EGe]2 [EGe]2 | %18
 [B,,A,]2 [B,,A,]2 [B,,F,]2 B,,2 | z2 (3z[K:treble] FF[K:bass] C,2 B,,2 | A,,2 E,,2 [A,,E,]2 z2 | %21
 [B,,E,]2 z2 [B,,E,]2 z2 | [B,,E,]2 [E,,E,]2 [B,,E,]2 [E,,E,]2 | [A,,E,]2 (3z CC [E,C]2 [E,,E,]2 | %24
 [C,,C,]2 [=D,,=D,]2 [=E,,=E,]2 [C,,C,]2 | [F,,F,]2 [C,,C,]2 [F,,F,]2 [A,,A,]2 | %26
 [B,,B,]2 [A,,A,]2 [G,,G,]2 [F,,F,]2 | [E,,E,]2 [E,,E,]2 [E,,E,]2 [G,,E,]2 | %28
 [A,,E,]2 z2 [A,,E,]2 z2 | [B,,E,]2 z2 [B,,E,]2 z2 | [B,,E,]2 [E,,E,]2 [B,,E,]2 [E,,E,]2 | %31
 z2 E,2 z4 | [A,,A,]2 [B,,B,]2 [C,C]2 [A,,A,]2 | [D,,D,]2 [D,,D,]2 [B,,,B,,]2 [B,,,B,,]2 | %34
 [E,,E,]2 [F,,F,]2 [G,,G,]2 E,,2 |[M:3/4] A,,2 E,,2 A,,,2 |] %36
V:3
 x8 | x8 | [CF]2 z2[K:bass] E,2 [E,CE]2 | x8 |[M:3/4] D2 (3[G,D]DD D2 |[M:1/4] x2 |[M:4/4] x8 | %7
 [DG]2 z2[K:bass] E,2 [E,DE]2 | x8 |[M:3/4] [CEA]2 (3AAA A2 |[M:1/4] x2 |[M:4/4] x8 | %12
 [CF]2 z2[K:bass] E,2 [E,CE]2 | x8 |[M:3/4] x6 |[M:1/4] x2 |[M:4/4] x8 | x8 | x8 | [G,E]6 z2 | %20
 E,2 E,2 z2 [E,,E,]2 | z2 [E,,E,]2 z2 [E,,E,]2 | x8 | [CA]2 (3[CE]EE F2 [CE]2 | %24
 [C=E]2 [CF]2 C2 [CE]2 | [CF]2 [CF]2 [CF]2 [CF]2 | x8 | x8 | z2[K:bass] [E,,E,]2 z2 [E,,E,]2 | %29
 z2 [E,,E,]2 z2 [E,,E,]2 | x8 | [CA]2 (3[CE]EE [CF]2 [CE]2 | [E_Ge]4 [EG]2 [CG]2 | x8 | %34
 [EAc]4 z2[K:bass] E,2 |[M:3/4] A,2 E,2 A,,2 |] %36
V:4
 x8 | x8 | z4 z2 E,,2 | x8 |[M:3/4] z2 E,2 z2 |[M:1/4] x2 |[M:4/4] x8 | z4 z2 E,,2 | x8 | %9
[M:3/4] z2 F,2 z2 |[M:1/4] x2 |[M:4/4] x8 | z4 z2 E,,2 | x8 |[M:3/4] x6 |[M:1/4] x2 |[M:4/4] x8 | %17
 x4[K:treble] x4 | x8 | E,6[K:treble][K:bass] z2 | x8 | x8 | x8 | z2 E,2 z4 | x8 | x8 | x8 | x8 | %28
 x8 | x8 | x8 | [A,,E,]2 (3z CC [A,,E,]2 [E,,E,]2 | x8 | x8 | x8 |[M:3/4] x6 |] %36
V:5
 x8 | x8 | x8 | x8 |[M:3/4] z2 E,,2 z2 |[M:1/4] x2 |[M:4/4] x8 | x8 | x8 |[M:3/4] x6 |[M:1/4] x2 | %11
[M:4/4] x8 | x8 | x8 |[M:3/4] x6 |[M:1/4] x2 |[M:4/4] x8 | x4[K:treble] x4 | x8 | %19
 z2 D,2[K:treble][K:bass] z4 | x8 | x8 | x8 | z2 E,,2 z4 | x8 | x8 | x8 | x8 | x8 | x8 | x8 | %31
 z2 E,,2 z4 | x8 | x8 | x8 |[M:3/4] x6 |] %36

